overrides/.icons/class/warlock.svg

<?xml version="1.0" encoding="UTF-8"?>
<svg id="svg8" version="1.1" viewBox="0 0 6.35 6.35" xmlns="http://www.w3.org/2000/svg" xmlns:cc="http://creativecommons.org/ns#" xmlns:dc="http://purl.org/dc/elements/1.1/" xmlns:rdf="http://www.w3.org/1999/02/22-rdf-syntax-ns#">
 <defs id="defs2">
  <clipPath id="clipPath619">
   <path id="path617" d="m0 2020h2020v-2020h-2020z"/>
  </clipPath>
 </defs>
 <metadata id="metadata5">
  <rdf:RDF>
   <cc:Work rdf:about="">
    <dc:format>image/svg+xml</dc:format>
    <dc:type rdf:resource="http://purl.org/dc/dcmitype/StillImage"/>
   </cc:Work>
  </rdf:RDF>
 </metadata>
 <g id="layer1" transform="translate(38.947 117.34)">
  <g id="g613" transform="matrix(.0043512 0 0 -.0043512 -40.264 -109.59)" stroke-width="81.075">
   <g id="g615" clip-path="url(#clipPath619)" stroke-width="81.075">
    <g id="g621" transform="translate(672.46 1169.5)">
     <path id="path623" d="m0 0-0.078 0.023c16.268 112.97 76.919 194.39 100.02 221.91-2.017 2.509-1.65 2.054-3.669 4.563-87.523-42.558-145.7-146.61-145.7-146.61 9.832 102.01 80.459 190.31 115.07 228.01-2.244 2.647-1.593 1.878-3.837 4.524-124.55-77.135-206.43-205.82-214.45-369.88l145.79 18.391c1.628 13.237 3.896 26.281 6.854 39.066"/>
    </g>
    <g id="g625" transform="translate(903.17 1160)">
     <path id="path627" d="m0 0 119.51-55.661s-1.637-27.83-31.105-31.105l40.928-134.24 40.928 134.24c-29.468 3.275-31.105 31.105-31.105 31.105l119.51 55.661c76.398-128.24 27.992-193.32-30.126-225.84-30.633-17.14-64.919-25.709-99.205-25.709s-68.572 8.569-99.204 25.709c-58.118 32.517-106.52 97.596-30.127 225.84m-18.008-388.74s81.856-228.44 111.32-357.78l5.928 3.192c9.615 5.177 16.072 14.748 17.275 25.602l12.814 115.77 12.815-115.77c1.202-10.854 7.66-20.425 17.274-25.602l5.928-3.192c29.466 129.33 111.32 357.78 111.32 357.78 76.943 197.34 203.08 217.27 203.08 217.27l257.58 68.333c-7.084 12.145-19.862 19.747-33.915 20.201-102.73 3.311-211.31 17.478-211.31 17.478-103.8 13.123-115.57 99.837-115.57 99.837l-47.476 262.88c-27.83 159.75 34.379 233.16 34.379 233.16-137.52-40.927-119.51-270.12-119.51-270.12l13.096-176.81c-63.701 57.201-86.107 137.11-92.634 167.6-2.84-0.011-2.319-9e-3 -5.16-0.021l-29.899-131.56-29.899 131.56c-2.841 0.012-2.319 0.01-5.16 0.021-6.526-30.483-28.933-110.4-92.634-167.6l13.096 176.81s18.008 229.19-119.51 270.12c0 0 62.209-73.41 34.378-233.16l-47.475-262.88s-11.775-86.714-115.57-99.837c0 0-108.58-14.167-211.31-17.478-14.053-0.454-26.831-8.056-33.915-20.201l257.58-68.333s126.14-19.928 203.08-217.27"/>
    </g>
    <g id="g629" transform="translate(959.65 1092)">
     <path id="path631" d="m0 0c-54.843-33.97-21.691-117.87-21.691-117.87h-6.139c-56.89 74.897-4.912 134.65-4.912 134.65z"/>
    </g>
    <g id="g633" transform="translate(842.17 766.84)">
     <path id="path635" d="m0 0c13.901-43.293 45.977-139.14 63.534-191.45-195.18 50.457-342.42 212.46-378.21 414.43l162.06-42.828c30.199-75.215 84.144-138.43 152.62-180.16"/>
    </g>
    <g id="g637" transform="translate(1005.5 1542.4)">
     <path id="path639" d="m0 0c0 41.132 27.012 86.561 27.012 86.561s27.011-45.429 27.011-86.561c0-32.33-27.011-126.46-27.011-126.46s-27.012 94.135-27.012 126.46"/>
    </g>
    <g id="g641" transform="translate(1133.2 974.16)">
     <path id="path643" d="m0 0h-6.14s33.152 83.901-21.69 117.87l32.741 16.78s51.978-59.754-4.911-134.65"/>
    </g>
    <g id="g645" transform="translate(1392.5 1169.5)">
     <path id="path647" d="m0 0 0.078 0.023c-16.268 112.97-76.919 194.39-100.02 221.91 2.017 2.509 1.651 2.054 3.669 4.563 87.523-42.558 145.7-146.61 145.7-146.61-9.831 102.01-80.459 190.31-115.07 228.01 2.244 2.647 1.593 1.878 3.837 4.524 124.55-77.135 206.43-205.82 214.45-369.88l-145.79 18.391c-1.627 13.237-3.896 26.281-6.854 39.066"/>
    </g>
    <g id="g649" transform="translate(1375.5 946.99)">
     <path id="path651" d="m0 0 162.06 42.829c-35.789-201.98-183.03-363.98-378.21-414.43 17.557 52.311 49.632 148.16 63.534 191.45 68.472 41.727 122.42 104.94 152.62 180.16"/>
    </g>
   </g>
  </g>
 </g>
</svg>

<?xml version="1.0" encoding="UTF-8" standalone="no"?>
<svg

   viewBox="0 0 6.3499997 6.3499997"
   version="1.1"
   id="svg8"
   inkscape:version="1.3.2 (091e20e, 2023-11-25, custom)"
   sodipodi:docname="class-warlock.svg"
   xmlns:inkscape="http://www.inkscape.org/namespaces/inkscape"
   xmlns:sodipodi="http://sodipodi.sourceforge.net/DTD/sodipodi-0.dtd"
   xmlns="http://www.w3.org/2000/svg"
   xmlns:svg="http://www.w3.org/2000/svg"
   xmlns:rdf="http://www.w3.org/1999/02/22-rdf-syntax-ns#"
   xmlns:cc="http://creativecommons.org/ns#"
   xmlns:dc="http://purl.org/dc/elements/1.1/">
  <defs
     id="defs2">
    <clipPath
       clipPathUnits="userSpaceOnUse"
       id="clipPath28">
      <path
         d="M 0,2020 H 2020 V 0 H 0 Z"
         id="path26" />
    </clipPath>
    <clipPath
       clipPathUnits="userSpaceOnUse"
       id="clipPath48">
      <path
         d="M 0,2020 H 2020 V 0 H 0 Z"
         id="path46" />
    </clipPath>
    <clipPath
       clipPathUnits="userSpaceOnUse"
       id="clipPath167">
      <path
         d="M 0,2020 H 2020 V 0 H 0 Z"
         id="path165" />
    </clipPath>
    <clipPath
       clipPathUnits="userSpaceOnUse"
       id="clipPath179">
      <path
         d="M 0,2020 H 2020 V 0 H 0 Z"
         id="path177" />
    </clipPath>
    <clipPath
       clipPathUnits="userSpaceOnUse"
       id="clipPath281">
      <path
         d="M 0,2020 H 2020 V 0 H 0 Z"
         id="path279" />
    </clipPath>
    <clipPath
       clipPathUnits="userSpaceOnUse"
       id="clipPath301">
      <path
         d="M 0,2020 H 2020 V 0 H 0 Z"
         id="path299" />
    </clipPath>
    <clipPath
       clipPathUnits="userSpaceOnUse"
       id="clipPath396">
      <path
         d="M 0,2020 H 2020 V 0 H 0 Z"
         id="path394" />
    </clipPath>
    <clipPath
       clipPathUnits="userSpaceOnUse"
       id="clipPath456">
      <path
         d="M 0,2020 H 2020 V 0 H 0 Z"
         id="path454" />
    </clipPath>
    <clipPath
       clipPathUnits="userSpaceOnUse"
       id="clipPath619">
      <path
         d="M 0,2020 H 2020 V 0 H 0 Z"
         id="path617" />
    </clipPath>
    <clipPath
       clipPathUnits="userSpaceOnUse"
       id="clipPath659">
      <path
         d="M 0,2020 H 2020 V 0 H 0 Z"
         id="path657" />
    </clipPath>
  </defs>
  <sodipodi:namedview
     id="base"
     pagecolor="#ffffff"
     bordercolor="#666666"
     borderopacity="1.0"
     inkscape:pageopacity="0.0"
     inkscape:pageshadow="2"
     inkscape:zoom="14.638042"
     inkscape:cx="9.0859149"
     inkscape:cy="19.025769"
     inkscape:document-units="px"
     inkscape:current-layer="layer1"
     inkscape:document-rotation="0"
     showgrid="false"
     inkscape:showpageshadow="false"
     units="px"
     inkscape:window-width="1360"
     inkscape:window-height="715"
     inkscape:window-x="-8"
     inkscape:window-y="-8"
     inkscape:window-maximized="1"
     inkscape:pagecheckerboard="0"
     inkscape:deskcolor="#d1d1d1" />
  <metadata
     id="metadata5">
    <rdf:RDF>
      <cc:Work
         rdf:about="">
        <dc:format>image/svg+xml</dc:format>
        <dc:type
           rdf:resource="http://purl.org/dc/dcmitype/StillImage" />
      </cc:Work>
    </rdf:RDF>
  </metadata>
  <g
     inkscape:label="Layer 1"
     inkscape:groupmode="layer"
     id="layer1"
     transform="translate(38.946718,117.34365)">
    <g
       id="g613"
       transform="matrix(0.00435125,0,0,-0.00435125,-40.264401,-109.59149)"
       style="stroke-width:81.0752">
      <g
         id="g615"
         clip-path="url(#clipPath619)"
         style="stroke-width:81.0752">
        <g
           id="g621"
           transform="translate(672.4648,1169.459)"
           style="stroke-width:81.0752">
          <path
             d="m 0,0 -0.078,0.023 c 16.268,112.969 76.919,194.386 100.021,221.913 -2.017,2.509 -1.65,2.054 -3.669,4.563 C 8.751,183.941 -49.43,79.887 -49.43,79.887 c 9.832,102.006 80.459,190.311 115.07,228.008 -2.244,2.647 -1.593,1.878 -3.837,4.524 -124.551,-77.135 -206.429,-205.82 -214.45,-369.876 L -6.854,-39.066 C -5.226,-25.829 -2.958,-12.785 0,0"
             style="fill-opacity:1;fill-rule:nonzero;stroke:none;stroke-width:81.0752"
             id="path623" />
        </g>
        <g
           id="g625"
           transform="translate(903.1729,1159.9663)"
           style="stroke-width:81.0752">
          <path
             d="m 0,0 119.508,-55.661 c 0,0 -1.637,-27.83 -31.105,-31.105 l 40.928,-134.241 40.928,134.241 c -29.468,3.275 -31.105,31.105 -31.105,31.105 L 258.662,0 c 76.398,-128.239 27.992,-193.318 -30.126,-225.835 -30.633,-17.14 -64.919,-25.709 -99.205,-25.709 -34.286,0 -68.572,8.569 -99.204,25.709 C -27.991,-193.318 -76.396,-128.239 0,0 m -18.008,-388.739 c 0,0 81.856,-228.445 111.322,-357.776 l 5.928,3.192 c 9.615,5.177 16.072,14.748 17.275,25.602 l 12.814,115.773 12.815,-115.773 c 1.202,-10.854 7.66,-20.425 17.274,-25.602 l 5.928,-3.192 c 29.466,129.331 111.322,357.776 111.322,357.776 76.943,197.341 203.08,217.269 203.08,217.269 l 257.58,68.333 c -7.084,12.145 -19.862,19.747 -33.915,20.201 -102.729,3.311 -211.31,17.478 -211.31,17.478 -103.798,13.123 -115.572,99.837 -115.572,99.837 l -47.476,262.883 c -27.83,159.746 34.379,233.156 34.379,233.156 C 225.92,489.491 243.928,260.298 243.928,260.298 L 257.024,83.492 c -63.701,57.201 -86.107,137.113 -92.634,167.596 -2.84,-0.011 -2.319,-0.009 -5.16,-0.021 L 129.331,119.508 99.432,251.067 c -2.841,0.012 -2.319,0.01 -5.16,0.021 C 87.746,220.605 65.339,140.693 1.638,83.492 l 13.096,176.806 c 0,0 18.008,229.193 -119.507,270.12 0,0 62.209,-73.41 34.378,-233.156 L -117.87,34.379 c 0,0 -11.775,-86.714 -115.573,-99.837 0,0 -108.58,-14.167 -211.31,-17.478 -14.053,-0.454 -26.831,-8.056 -33.915,-20.201 l 257.58,-68.333 c 0,0 126.138,-19.928 203.08,-217.269"
             style="fill-opacity:1;fill-rule:nonzero;stroke:none;stroke-width:81.0752"
             id="path627" />
        </g>
        <g
           id="g629"
           transform="translate(959.6533,1092.0273)"
           style="stroke-width:81.0752">
          <path
             d="M 0,0 C -54.843,-33.97 -21.691,-117.871 -21.691,-117.871 H -27.83 C -84.72,-42.974 -32.742,16.78 -32.742,16.78 Z"
             style="fill-opacity:1;fill-rule:nonzero;stroke:none;stroke-width:81.0752"
             id="path631" />
        </g>
        <g
           id="g633"
           transform="translate(842.1719,766.8369)"
           style="stroke-width:81.0752">
          <path
             d="m 0,0 c 13.901,-43.293 45.977,-139.137 63.534,-191.448 -195.185,50.457 -342.423,212.455 -378.211,414.431 l 162.06,-42.828 C -122.418,104.94 -68.473,41.727 0,0"
             style="fill-opacity:1;fill-rule:nonzero;stroke:none;stroke-width:81.0752"
             id="path635" />
        </g>
        <g
           id="g637"
           transform="translate(1005.4922,1542.4326)"
           style="stroke-width:81.0752">
          <path
             d="m 0,0 c 0,41.132 27.012,86.561 27.012,86.561 0,0 27.011,-45.429 27.011,-86.561 0,-32.33 -27.011,-126.465 -27.011,-126.465 C 27.012,-126.465 0,-32.33 0,0"
             style="fill-opacity:1;fill-rule:nonzero;stroke:none;stroke-width:81.0752"
             id="path639" />
        </g>
        <g
           id="g641"
           transform="translate(1133.1855,974.1567)"
           style="stroke-width:81.0752">
          <path
             d="m 0,0 h -6.14 c 0,0 33.152,83.901 -21.69,117.871 l 32.741,16.78 C 4.911,134.651 56.889,74.897 0,0"
             style="fill-opacity:1;fill-rule:nonzero;stroke:none;stroke-width:81.0752"
             id="path643" />
        </g>
        <g
           id="g645"
           transform="translate(1392.543,1169.459)"
           style="stroke-width:81.0752">
          <path
             d="m 0,0 0.078,0.023 c -16.268,112.969 -76.919,194.386 -100.021,221.913 2.017,2.509 1.651,2.054 3.669,4.563 C -8.751,183.941 49.43,79.887 49.43,79.887 39.599,181.893 -31.029,270.198 -65.64,307.895 c 2.244,2.647 1.593,1.878 3.837,4.524 124.552,-77.135 206.429,-205.82 214.45,-369.876 L 6.854,-39.066 C 5.227,-25.829 2.958,-12.785 0,0"
             style="fill-opacity:1;fill-rule:nonzero;stroke:none;stroke-width:81.0752"
             id="path647" />
        </g>
        <g
           id="g649"
           transform="translate(1375.4531,946.9917)"
           style="stroke-width:81.0752">
          <path
             d="m 0,0 162.06,42.829 c -35.789,-201.976 -183.026,-363.975 -378.211,-414.432 17.557,52.311 49.632,148.155 63.534,191.448 C -84.145,-138.428 -30.199,-75.214 0,0"
             style="fill-opacity:1;fill-rule:nonzero;stroke:none;stroke-width:81.0752"
             id="path651" />
        </g>
      </g>
    </g>
  </g>
</svg>
